packages/core/icons/tp-numbers.svg

<svg viewBox="0 0 24 24">
  <title>numbers</title>
  <style>
    :host {
      --stroke: var(--tp-color-neutral-10);
      --stroke-width: 2;
    }

    :host {
      font-size: 24px;
      stroke: inherit;
    }

    :host path {
      stroke: var(--stroke);
      stroke-width: var(--stroke-width);
      fill: none;
      stroke-linecap: round;
      stroke-linejoin: round;
    }

    :host(.ion-color) path {
      --stroke: var(--ion-color-base) !important;
    }

    :host([tp-size='sm']) {
      /* --stroke-width: 1.5; */
      font-size: 16px;
    }

    :host([tp-size='md']) {
      /* --stroke-width: 3; */
      font-size: 32px;
    }

    :host([tp-size='lg']) {
      /* --stroke-width: 4; */
      font-size: 48px;
    }
  </style>
  <path d="M16.2741 11.784C16.2741 12.6267 16.1675 13.3787 15.9541 14.04C15.7408 14.7013 15.4368 15.2667 15.0421 15.736C14.6581 16.1947 14.1888 16.5467 13.6341 16.792C13.0901 17.0373 12.4768 17.16 11.7941 17.16C11.1115 17.16 10.4928 17.0427 9.93813 16.808C9.38346 16.5627 8.90879 16.2107 8.51413 15.752C8.13013 15.2827 7.83146 14.7173 7.61813 14.056C7.40479 13.3947 7.29813 12.6373 7.29813 11.784V11.608C7.29813 10.7653 7.40479 10.0133 7.61813 9.352C7.83146 8.69067 8.13013 8.13067 8.51413 7.672C8.90879 7.20267 9.37813 6.84533 9.92213 6.6C10.4768 6.35467 11.0901 6.232 11.7621 6.232C12.4448 6.232 13.0635 6.35467 13.6181 6.6C14.1728 6.84533 14.6475 7.19733 15.0421 7.656C15.4368 8.11467 15.7408 8.68 15.9541 9.352C16.1675 10.0133 16.2741 10.7653 16.2741 11.608V11.784ZM14.0181 11.608C14.0181 10.4347 13.8315 9.58667 13.4581 9.064C13.0955 8.54133 12.5408 8.28 11.7941 8.28C11.0368 8.28 10.4715 8.54133 10.0981 9.064C9.73546 9.58667 9.55413 10.4347 9.55413 11.608V11.784C9.55413 12.9573 9.73546 13.8053 10.0981 14.328C10.4715 14.8507 11.0315 15.112 11.7781 15.112C12.5248 15.112 13.0848 14.856 13.4581 14.344C13.8315 13.8213 14.0181 12.968 14.0181 11.784V11.608Z"/>
</svg>

<svg viewBox="0 0 24 24">
  <title>numbers</title>
  <style>
    :host {
      --stroke: var(--tp-color-neutral-10);
      --stroke-width: 2;
    }

    :host {
      font-size: 24px;
      stroke: inherit;
    }

    :host path {
      stroke: none;
      stroke-width: var(--stroke-width);
      fill: var(--stroke);
      stroke-linecap: round;
      stroke-linejoin: round;
    }

    :host(.ion-color) path {
      --stroke: var(--ion-color-base) !important;
    }

    :host([tp-size='sm']) {
      /* --stroke-width: 1.5; */
      font-size: 16px;
    }

    :host([tp-size='md']) {
      /* --stroke-width: 3; */
      font-size: 32px;
    }

    :host([tp-size='lg']) {
      /* --stroke-width: 4; */
      font-size: 48px;
    }
  </style>
  <path d="M16.274 11.784c0 0.843-0.107 1.595-0.32 2.256s-0.517 1.227-0.912 1.696c-0.384 0.459-0.853 0.811-1.408 1.056-0.544 0.245-1.157 0.368-1.84 0.368s-1.301-0.117-1.856-0.352c-0.555-0.245-1.029-0.597-1.424-1.056-0.384-0.469-0.683-1.035-0.896-1.696s-0.32-1.419-0.32-2.272v-0.176c0-0.843 0.107-1.595 0.32-2.256s0.512-1.221 0.896-1.68c0.395-0.469 0.864-0.827 1.408-1.072 0.555-0.245 1.168-0.368 1.84-0.368 0.683 0 1.301 0.123 1.856 0.368s1.029 0.597 1.424 1.056c0.395 0.459 0.699 1.024 0.912 1.696 0.213 0.661 0.32 1.413 0.32 2.256v0.176zM14.018 11.608c0-1.173-0.187-2.021-0.56-2.544-0.363-0.523-0.917-0.784-1.664-0.784-0.757 0-1.323 0.261-1.696 0.784-0.363 0.523-0.544 1.371-0.544 2.544v0.176c0 1.173 0.181 2.021 0.544 2.544 0.373 0.523 0.933 0.784 1.68 0.784s1.307-0.256 1.68-0.768c0.373-0.523 0.56-1.376 0.56-2.56v-0.176z"></path>
</svg>
